static/images/plans/wpcom/plan-blogger-circle.svg

<svg height="72" viewBox="0 0 72 72" width="72" xmlns="http://www.w3.org/2000/svg" xmlns:xlink="http://www.w3.org/1999/xlink"><defs><circle id="a" cx="36" cy="36" r="36"/><path id="b" d="m.14304662 34.3576165 8.92847669 22.3211918c.20511341.5127835.78708385.7621994 1.29986739.557086.2541026-.1016411.4554449-.3029834.557086-.557086l8.9284767-22.3211918c.0944962-.2362405.1430466-.4883424.1430466-.7427813v-33.6148352h-20v33.6148352c0 .2544389.0485504.5065408.14304662.7427813z"/><mask id="c" fill="#fff"><use fill="#fff" fill-rule="evenodd" xlink:href="#a"/></mask><mask id="d" fill="#fff"><path d="m0 0h72v72h-72z" fill="#fff" fill-rule="evenodd"/></mask><mask id="e" fill="#fff"><use fill="#fff" fill-rule="evenodd" xlink:href="#b"/></mask></defs><g fill="none" fill-rule="evenodd"><use fill="#438c7d" xlink:href="#a"/><rect fill="#007565" height="1" mask="url(#c)" rx=".5" width="28" x="-2" y="54"/><g mask="url(#c)"><g fill="none" fill-rule="evenodd" mask="url(#d)" transform="matrix(.8660254 .5 -.5 .8660254 22.820007 -13.176915)"><g fill-rule="evenodd" transform="translate(26 -2)"><use fill="#195d52" xlink:href="#b"/><path d="m9.00307814 0h1.99999996v22.4625166c0 4.0118343.4177153 5.4666224 1.2020972 6.9332891.7843819 1.4666666 1.9354305 2.6177152 3.4020972 3.4020971 1.2614945.6746547 2.5142015 1.0780534 5.3927275 1.1777139v16.0243833h-22v-16.0241708c2.88289694-.0992982 4.13649028-.5027909 5.39888381-1.1779264 1.46666666-.7843819 2.61771525-1.9354305 3.40209716-3.4020971.78438192-1.4666667 1.20209717-2.9214548 1.20209717-6.9332891z" fill="#fff" mask="url(#e)"/></g></g></g></g></svg>

<?xml version="1.0" encoding="UTF-8"?><svg width="72px" height="72px" viewBox="0 0 72 72" version="1.1" xmlns="http://www.w3.org/2000/svg" xmlns:xlink="http://www.w3.org/1999/xlink"><defs><circle id="path-1" cx="36" cy="36" r="36"></circle><rect id="path-3" x="0" y="0" width="72" height="72"></rect><path d="M0.143046618,34.3576165 L9.07152331,56.6788083 C9.27663672,57.1915918 9.85860716,57.4410077 10.3713907,57.2358943 C10.6254933,57.1342532 10.8268356,56.9329109 10.9284767,56.6788083 L19.8569534,34.3576165 C19.9514496,34.121376 20,33.8692741 20,33.6148352 L20,0 L-5.68434189e-14,0 L5.19584376e-14,33.6148352 C5.28935457e-14,33.8692741 0.048550398,34.121376 0.143046618,34.3576165 Z" id="path-5"></path></defs><g id="Plan/Blogger" stroke="none" stroke-width="1" fill="none" fill-rule="evenodd"><g id="plan"><mask id="mask-2" fill="white"><use xlink:href="#path-1"></use></mask><use id="bg" fill="#438C7D" xlink:href="#path-1"></use><rect id="line" fill="#007565" mask="url(#mask-2)" x="-2" y="54" width="28" height="1" rx="0.5"></rect><g id="icon" mask="url(#mask-2)"><g transform="translate(35.996922, 36.000000) rotate(30.000000) translate(-35.996922, -36.000000) translate(-0.003078, 0.000000)"><mask id="mask-4" fill="white"><use xlink:href="#path-3"></use></mask><g id="bounds" stroke="none" fill="none"></g><g id="pen" stroke="none" stroke-width="1" fill="none" fill-rule="evenodd" mask="url(#mask-4)"><g transform="translate(26.000000, -2.000000)"><mask id="mask-6" fill="white"><use xlink:href="#path-5"></use></mask><use id="bg" stroke="none" fill="#195D52" fill-rule="evenodd" xlink:href="#path-5"></use><path d="M9.00307814,-2.27373675e-13 L11.0030781,-2.27373675e-13 L11.0030781,22.4625166 C11.0030781,26.4743509 11.4207934,27.929139 12.2051753,29.3958057 C12.9895572,30.8624723 14.1406058,32.0135209 15.6072725,32.7979028 C16.868767,33.4725575 18.121474,33.8759562 21,33.9756167 L21,50 L-1,50 L-1,33.9758292 C1.88289694,33.876531 3.13649028,33.4730383 4.39888381,32.7979028 C5.86555047,32.0135209 7.01659906,30.8624723 7.80098097,29.3958057 C8.58536289,27.929139 9.00307814,26.4743509 9.00307814,22.4625166 L9.00307814,-2.27373675e-13 Z" id="alt" stroke="none" fill="#FFFFFF" fill-rule="evenodd" mask="url(#mask-6)"></path></g></g></g></g></g></g></svg>
